images/footer/social-facebook.svg

<svg width="10" height="18" fill="none" xmlns="http://www.w3.org/2000/svg"><path d="M7 0a4 4 0 0 0-4 4v2H0v4h3v8h4v-8h3V6H7V4h3V0H7Z" fill="#83B3D3"/></svg>

<svg width="10" height="18" viewBox="0 0 10 18" fill="none" xmlns="http://www.w3.org/2000/svg">
<path d="M7 0C4.8 0 3 1.8 3 4V6H0V10H3V18H7V10H10V6H7V4H10V0H7Z" fill="#83B3D3"/>
</svg>
